addons/criss-cross/nodes/grid2d.svg

<svg height="16" viewBox="0 0 16 16" width="16" xmlns="http://www.w3.org/2000/svg"><path d="m4.8320312.99804688v3.83398432h-3.8320312v1h3.8320312v4.3339848h-3.8320312v1h3.8320312v3.833984h1v-3.833984h4.3339848v3.833984h1v-3.833984h3.833984v-1h-3.833984v-4.3320316h3.832031v-1h-3.832031v-3.8339844h-1v3.8339844l-4.3339848-.0019532v-3.83398432zm1 4.83398432 4.3339848.0019532v4.3320316h-4.3339848z" fill="#8da5f3"/></svg>

<?xml version="1.0" encoding="UTF-8" standalone="no"?>
<svg
   height="16"
   viewBox="0 0 16 16"
   width="16"
   version="1.1"
   id="svg8"
   sodipodi:docname="grid2d.svg"
   inkscape:version="1.1.2 (b8e25be833, 2022-02-05)"
   xmlns:inkscape="http://www.inkscape.org/namespaces/inkscape"
   xmlns:sodipodi="http://sodipodi.sourceforge.net/DTD/sodipodi-0.dtd"
   xmlns="http://www.w3.org/2000/svg"
   xmlns:svg="http://www.w3.org/2000/svg">
  <defs
     id="defs12" />
  <sodipodi:namedview
     id="namedview10"
     pagecolor="#505050"
     bordercolor="#eeeeee"
     borderopacity="1"
     inkscape:pageshadow="0"
     inkscape:pageopacity="0"
     inkscape:pagecheckerboard="0"
     showgrid="false"
     inkscape:object-paths="true"
     inkscape:snap-intersection-paths="true"
     inkscape:snap-smooth-nodes="true"
     inkscape:snap-midpoints="true"
     inkscape:zoom="45.254834"
     inkscape:cx="7.7560775"
     inkscape:cy="10.960155"
     inkscape:window-width="1920"
     inkscape:window-height="1057"
     inkscape:window-x="-8"
     inkscape:window-y="-8"
     inkscape:window-maximized="1"
     inkscape:current-layer="g6" />
  <g
     fill="#45ffa2"
     id="g6">
    <path
       id="path961"
       style="color:#000000;fill:#8da5f3;-inkscape-stroke:none;fill-opacity:1"
       d="M 4.8320312 0.99804688 L 4.8320312 4.8320312 L 1 4.8320312 L 1 5.8320312 L 4.8320312 5.8320312 L 4.8320312 10.166016 L 1 10.166016 L 1 11.166016 L 4.8320312 11.166016 L 4.8320312 15 L 5.8320312 15 L 5.8320312 11.166016 L 10.166016 11.166016 L 10.166016 15 L 11.166016 15 L 11.166016 11.166016 L 15 11.166016 L 15 10.166016 L 11.166016 10.166016 L 11.166016 5.8339844 L 14.998047 5.8339844 L 14.998047 4.8339844 L 11.166016 4.8339844 L 11.166016 1 L 10.166016 1 L 10.166016 4.8339844 L 5.8320312 4.8320312 L 5.8320312 0.99804688 L 4.8320312 0.99804688 z M 5.8320312 5.8320312 L 10.166016 5.8339844 L 10.166016 10.166016 L 5.8320312 10.166016 L 5.8320312 5.8320312 z " />
  </g>
</svg>
